src/assets/svg/icons/fa/nuevos/classic/thin/face-pensive classic thin.svg

<svg xmlns="http://www.w3.org/2000/svg" viewBox="0 0 512 512"><!--! Font Awesome Pro 6.4.0 by @fontawesome - https://fontawesome.com License - https://fontawesome.com/license (Commercial License) Copyright 2023 Fonticons, Inc. --><path d="M496 256A240 240 0 1 0 16 256a240 240 0 1 0 480 0zM0 256a256 256 0 1 1 512 0A256 256 0 1 1 0 256zM208 392h96c4.4 0 8 3.6 8 8s-3.6 8-8 8H208c-4.4 0-8-3.6-8-8s3.6-8 8-8zm143.6-88c14.6 0 30.2-8.6 41-27.9c2.2-3.9 7-5.2 10.9-3.1s5.2 7 3.1 10.9c-13.1 23.4-33.6 36.1-55 36.1s-41.8-12.7-55-36.1c-2.2-3.9-.8-8.7 3.1-10.9s8.7-.8 10.9 3.1c10.9 19.3 26.4 27.9 41 27.9zm-233-27.9c10.9 19.3 26.4 27.9 41 27.9s30.2-8.6 41-27.9c2.2-3.9 7-5.2 10.9-3.1s5.2 7 3.1 10.9c-13.1 23.4-33.6 36.1-55 36.1s-41.8-12.7-55-36.1c-2.2-3.9-.8-8.7 3.1-10.9s8.7-.8 10.9 3.1zM80.5 218.8c-1.6-4.1 .5-8.7 4.7-10.3l20.7-7.8c26.2-9.8 48.2-28.5 62.1-52.8l9.1-15.9c2.2-3.8 7.1-5.2 10.9-3s5.2 7.1 3 10.9l-9.1 15.9c-15.7 27.5-40.6 48.7-70.3 59.9l-20.7 7.8c-4.1 1.6-8.7-.5-10.3-4.7zm346.3-10.3c4.1 1.6 6.2 6.2 4.7 10.3s-6.2 6.2-10.3 4.7l-20.7-7.8c-29.7-11.1-54.6-32.3-70.3-59.9L321.1 140c-2.2-3.8-.9-8.7 3-10.9s8.7-.9 10.9 3l9.1 15.9c13.9 24.3 35.8 43 62.1 52.8l20.7 7.8z"/></svg>

<svg xmlns="http://www.w3.org/2000/svg" viewBox="0 0 512 512"><path d="M304 392C308.4 392 312 395.6 312 400C312 404.4 308.4 408 304 408H208C203.6 408 200 404.4 200 400C200 395.6 203.6 392 208 392H304zM392.7 276.1C394.8 272.2 399.7 270.9 403.5 273C407.4 275.2 408.8 280.1 406.6 283.9C393.5 307.3 373 319.1 351.6 319.1C330.2 319.1 309.8 307.3 296.7 283.9C294.5 280.1 295.9 275.2 299.7 273C303.6 270.9 308.4 272.2 310.6 276.1C321.5 295.4 337 304 351.6 304C366.2 304 381.8 295.4 392.7 276.1H392.7zM118.6 276.1C129.5 295.4 145 304 159.6 304C174.2 304 189.8 295.4 200.7 276.1C202.8 272.2 207.7 270.9 211.6 273C215.4 275.2 216.8 280.1 214.6 283.9C201.5 307.3 181 319.1 159.6 319.1C138.2 319.1 117.8 307.3 104.7 283.9C102.5 280.1 103.9 275.2 107.7 273C111.6 270.9 116.4 272.2 118.6 276.1H118.6zM80.51 218.8C78.96 214.7 81.05 210.1 85.19 208.5L105.9 200.7C132.1 190.9 154.1 172.2 167.1 147.9L177.1 132C179.2 128.2 184.1 126.9 187.1 129.1C191.8 131.2 193.1 136.1 190.9 139.1L181.9 155.8C166.1 183.4 141.3 204.6 111.5 215.7L90.81 223.5C86.67 225 82.06 222.9 80.51 218.8L80.51 218.8zM426.8 208.5C430.9 210.1 433 214.7 431.5 218.8C429.9 222.9 425.3 225 421.2 223.5L400.5 215.7C370.7 204.6 345.9 183.4 330.1 155.8L321.1 139.1C318.9 136.1 320.2 131.2 324 129.1C327.9 126.9 332.8 128.2 334.9 132L344 147.9C357.9 172.2 379.9 190.9 406.1 200.7L426.8 208.5zM512 256C512 397.4 397.4 512 256 512C114.6 512 0 397.4 0 256C0 114.6 114.6 0 256 0C397.4 0 512 114.6 512 256zM256 16C123.5 16 16 123.5 16 256C16 388.5 123.5 496 256 496C388.5 496 496 388.5 496 256C496 123.5 388.5 16 256 16z"/></svg>
